img/favicons/icon.svg

<svg width="180" height="180" viewBox="0 0 180 180" fill="none" xmlns="http://www.w3.org/2000/svg">
<rect width="180" height="180" fill="white"/>
<path fill-rule="evenodd" clip-rule="evenodd" d="M38.014 37.998L90 16.4646L141.986 37.998L163.526 90L141.986 142.002L90 163.535L38.014 142.002L16.474 90L38.014 37.998ZM90 15L143.033 36.967L165 90L143.033 143.033L90 165L36.967 143.033L15 90L36.967 36.967L90 15ZM79.9254 75.0378C78.5182 74.7459 76.7836 74.6 74.7218 74.6C71.3509 74.6 68.3073 75.2486 65.5909 76.5459C62.9073 77.8432 60.7964 79.6757 59.2582 82.0432C57.72 84.3784 56.9509 87.0703 56.9509 90.1189C56.9509 93.2649 57.7036 96.0541 59.2091 98.4865C60.7145 100.919 62.8091 102.816 65.4927 104.178C68.2091 105.508 71.2855 106.173 74.7218 106.173C76.6527 106.173 78.3545 106.011 79.8273 105.686C81.3327 105.362 82.9364 104.795 84.6382 103.984C84.8345 103.854 84.9655 103.741 85.0309 103.643C85.0964 103.546 85.1455 103.303 85.1782 102.914L85.6691 97.5622C85.6691 97.4649 85.5545 97.4162 85.3255 97.4162C85.1618 97.4162 85.08 97.4486 85.08 97.5135C84.1964 100.173 82.92 102.151 81.2509 103.449C79.5818 104.746 77.4055 105.395 74.7218 105.395C72.2018 105.395 69.8618 104.714 67.7018 103.351C65.5745 101.989 63.8727 100.141 62.5964 97.8054C61.3527 95.4378 60.7309 92.8432 60.7309 90.0216C60.7309 87.0703 61.3036 84.4919 62.4491 82.2865C63.5945 80.0487 65.2145 78.3297 67.3091 77.1297C69.4036 75.9297 71.8255 75.3297 74.5745 75.3297C79.8109 75.3297 83.1818 78.0378 84.6873 83.4541C84.72 83.5514 84.8182 83.6 84.9818 83.6C85.1782 83.5676 85.2764 83.5027 85.2764 83.4054L84.6873 77.6162C84.6218 77.227 84.5727 76.9838 84.54 76.8865C84.5073 76.7892 84.3764 76.6757 84.1473 76.5459C82.74 75.8324 81.3327 75.3297 79.9254 75.0378ZM123.79 105.249C123.79 105.054 123.741 104.957 123.643 104.957C122.4 104.957 121.483 104.876 120.894 104.714C120.305 104.551 119.896 104.243 119.667 103.789C119.47 103.303 119.372 102.573 119.372 101.6V79.0757C119.372 78.1027 119.47 77.3892 119.667 76.9351C119.896 76.4811 120.305 76.173 120.894 76.0108C121.483 75.8162 122.4 75.7189 123.643 75.7189C123.741 75.7189 123.79 75.6216 123.79 75.427C123.79 75.2324 123.741 75.1351 123.643 75.1351L121.238 75.1838C119.863 75.2486 118.734 75.2811 117.85 75.2811C116.869 75.2811 115.658 75.2486 114.218 75.1838L111.91 75.1351C111.812 75.1351 111.763 75.2324 111.763 75.427C111.763 75.6216 111.812 75.7189 111.91 75.7189C113.187 75.7189 114.12 75.8162 114.709 76.0108C115.298 76.2054 115.69 76.5459 115.887 77.0324C116.116 77.4865 116.23 78.2 116.23 79.173V89.1946H97.3796V79.173C97.3796 78.2 97.4778 77.4865 97.6741 77.0324C97.9032 76.5459 98.3123 76.2054 98.9014 76.0108C99.5232 75.8162 100.456 75.7189 101.7 75.7189C101.765 75.7189 101.798 75.6216 101.798 75.427C101.798 75.2324 101.765 75.1351 101.7 75.1351L99.3432 75.1838C97.9032 75.2486 96.7087 75.2811 95.7596 75.2811C94.9414 75.2811 93.845 75.2486 92.4705 75.1838L89.9668 75.1351C89.9014 75.1351 89.8687 75.2324 89.8687 75.427C89.8687 75.6216 89.9014 75.7189 89.9668 75.7189C91.2105 75.7189 92.1268 75.8162 92.7159 76.0108C93.305 76.173 93.6978 76.4811 93.8941 76.9351C94.1232 77.3892 94.2378 78.1027 94.2378 79.0757V101.6C94.2378 102.573 94.1232 103.303 93.8941 103.789C93.6978 104.243 93.2887 104.551 92.6668 104.714C92.0778 104.876 91.1614 104.957 89.9177 104.957C89.8523 104.957 89.8196 105.054 89.8196 105.249C89.8196 105.443 89.8523 105.541 89.9177 105.541C90.965 105.541 91.7832 105.524 92.3723 105.492L95.7596 105.443L99.2941 105.492C99.8832 105.524 100.685 105.541 101.7 105.541C101.765 105.541 101.798 105.443 101.798 105.249C101.798 105.054 101.765 104.957 101.7 104.957C100.423 104.957 99.4905 104.876 98.9014 104.714C98.3123 104.551 97.9032 104.243 97.6741 103.789C97.4778 103.303 97.3796 102.573 97.3796 101.6V90.2162H116.23V101.6C116.23 102.573 116.116 103.303 115.887 103.789C115.69 104.243 115.298 104.551 114.709 104.714C114.12 104.876 113.187 104.957 111.91 104.957C111.812 104.957 111.763 105.054 111.763 105.249C111.763 105.443 111.812 105.541 111.91 105.541C112.892 105.541 113.661 105.524 114.218 105.492L117.85 105.443L121.238 105.492C121.827 105.524 122.629 105.541 123.643 105.541C123.741 105.541 123.79 105.443 123.79 105.249Z" fill="#A87B62"/>
</svg>

<svg width="180" height="180" fill="none" xmlns="http://www.w3.org/2000/svg"><path fill="#fff" d="M0 0h180v180H0z"/><path fill-rule="evenodd" clip-rule="evenodd" d="M38.014 37.998L90 16.465l51.986 21.533L163.526 90l-21.54 52.002L90 163.535l-51.986-21.533L16.474 90l21.54-52.002zM90 15l53.033 21.967L165 90l-21.967 53.033L90 165l-53.033-21.967L15 90l21.967-53.033L90 15zM79.925 75.038c-1.407-.292-3.141-.438-5.203-.438-3.371 0-6.415.649-9.131 1.946-2.684 1.297-4.795 3.13-6.333 5.497-1.538 2.335-2.307 5.027-2.307 8.076 0 3.146.753 5.935 2.258 8.368 1.505 2.432 3.6 4.329 6.284 5.691 2.716 1.33 5.793 1.995 9.229 1.995 1.93 0 3.633-.162 5.105-.487 1.506-.324 3.11-.891 4.811-1.702.197-.13.328-.243.393-.341.065-.097.114-.34.147-.729l.491-5.352c0-.097-.114-.146-.343-.146-.164 0-.246.033-.246.097-.884 2.66-2.16 4.638-3.83 5.936-1.668 1.297-3.844 1.946-6.528 1.946-2.52 0-4.86-.681-7.02-2.044-2.127-1.362-3.83-3.21-5.106-5.546-1.243-2.367-1.865-4.962-1.865-7.783 0-2.952.573-5.53 1.718-7.736 1.145-2.237 2.766-3.956 4.86-5.156 2.095-1.2 4.517-1.8 7.266-1.8 5.236 0 8.607 2.708 10.112 8.124.033.097.131.146.295.146.196-.032.294-.097.294-.195l-.589-5.789a6.592 6.592 0 00-.147-.73c-.033-.097-.164-.21-.393-.34-1.407-.714-2.814-1.216-4.222-1.508zm43.865 30.211c0-.195-.049-.292-.147-.292-1.243 0-2.16-.081-2.749-.243-.589-.163-.998-.471-1.227-.925-.197-.486-.295-1.216-.295-2.189V79.076c0-.973.098-1.687.295-2.14.229-.455.638-.763 1.227-.925.589-.195 1.506-.292 2.749-.292.098 0 .147-.097.147-.292 0-.195-.049-.292-.147-.292l-2.405.049a74.674 74.674 0 01-3.388.097c-.981 0-2.192-.032-3.632-.097l-2.308-.049c-.098 0-.147.097-.147.292 0 .195.049.292.147.292 1.277 0 2.21.097 2.799.292.589.194.981.535 1.178 1.021.229.455.343 1.168.343 2.141v10.022H97.38V79.173c0-.973.098-1.686.294-2.14.23-.487.638-.828 1.227-1.022.622-.195 1.555-.292 2.799-.292.065 0 .098-.097.098-.292 0-.195-.033-.292-.098-.292l-2.357.049a81.98 81.98 0 01-3.583.097c-.819 0-1.915-.032-3.29-.097l-2.503-.049c-.066 0-.098.097-.098.292 0 .195.032.292.098.292 1.243 0 2.16.097 2.749.292.589.162.982.47 1.178.924.23.454.344 1.168.344 2.14V101.6c0 .973-.115 1.703-.344 2.189-.196.454-.605.762-1.227.925-.59.162-1.506.243-2.75.243-.065 0-.097.097-.097.292 0 .194.032.292.098.292 1.047 0 1.865-.017 2.454-.049l3.388-.049 3.534.049c.59.032 1.391.049 2.406.049.065 0 .098-.098.098-.292 0-.195-.033-.292-.098-.292-1.277 0-2.21-.081-2.799-.243-.589-.163-.998-.471-1.227-.925-.196-.486-.294-1.216-.294-2.189V90.216h18.85V101.6c0 .973-.114 1.703-.343 2.189-.197.454-.589.762-1.178.925-.589.162-1.522.243-2.799.243-.098 0-.147.097-.147.292 0 .194.049.292.147.292.982 0 1.751-.017 2.308-.049l3.632-.049 3.388.049c.589.032 1.391.049 2.405.049.098 0 .147-.098.147-.292z" fill="#A87B62"/></svg>
